!! 00000] TT[00
!! NN
!!!OTL: Bawang Haozi
!!!ARE: Asia, Ostasien, China, ........
!! Ethnic Group: Han
!! Haozi - Artikel, Essen 1991
!!!SCT: C0000
!!!YEM: Copyright 1995, estate of Helmut Schaffrath.
**kern
*ICvox
*Ivox
*M2/4
*k[]
*C:
{8dd
16dd
16dd
8cc
8a
=1
4.g
8a
=2
8g
16g
16a
8cc
8cc}
=3
{4a
8g
8f
=4
8.dd
16a
8a
8g
=5
4f
4r}
=6
{8g
16g
16g
8f
8d
=7
4c
4r}
==
!!!AGN: Haozi beim Fischfang
!!!ONB: ESAC (Essen Associative Code) Database: CHINAx
!!!AMT: simple duple
!!!AIN: vox
!!!EED: Helmut Schaffrath
!!!EEV: 1.0
*-
